;FLAVOR:Marlin
;TIME:519
;Filament used: 0.480807m
;Layer height: 0.06
;Generated with Cura_SteamEngine 4.0.0
M140 S60
M105
M190 S60
M104 S200
M105
M109 S200
M82 ;absolute extrusion mode
; Ender 3 Custom Start G-code
G28 ; Home all axes
G92 E0 ; Reset Extruder
G1 Z2.0 F3000 ; Move Z Axis up little to prevent scratching of Heat Bed
G1 X0.1 Y20 Z0.3 F5000.0 ; Move to start position
G1 X0.1 Y200.0 Z0.3 F1500.0 E15 ; Draw the first line
G1 X0.4 Y200.0 Z0.3 F5000.0 ; Move to side a little
G1 X0.4 Y20 Z0.3 F1500.0 E30 ; Draw the second line
G92 E0 ; Reset Extruder
G1 Z2.0 F3000 ; Move Z Axis up little to prevent scratching of Heat Bed
; End of custom start GCode
G92 E0
G1 F2400 E-5
;LAYER_COUNT:2
;LAYER:0
M107
M204 S5000
M205 X30 Y30
G0 F3600 X22.971 Y22.996 Z0.2
M204 S500
M205 X20 Y20
;TYPE:SKIRT
G1 F2400 E0
G1 F1800 X23.503 Y22.518 E0.02379
G1 X24.085 Y22.102 E0.04758
G1 X24.71 Y21.754 E0.07137
G1 X25.37 Y21.477 E0.09518
G1 X26.056 Y21.276 E0.11896
G1 X26.761 Y21.153 E0.14276
G1 X27.509 Y21.109 E0.16768
G1 X57.498 Y21.111 E1.16512
G1 X58.213 Y21.151 E1.18894
G1 X58.918 Y21.27 E1.21272
G1 X59.605 Y21.468 E1.2365
G1 X60.266 Y21.741 E1.26028
G1 X60.893 Y22.086 E1.28409
G1 X61.244 Y22.322 E1.29815
G1 X63.999 Y24.311 E1.41117
G1 X68.45 Y27.226 E1.58813
G1 X73.044 Y29.876 E1.76453
G1 X77.775 Y32.259 E1.94072
G1 X82.67 Y34.387 E2.11824
G1 X85.13 Y35.335 E2.20593
G1 X87.53 Y36.181 E2.29057
G1 X92.66 Y37.751 E2.469
G1 X97.827 Y39.017 E2.64594
G1 X100.42 Y39.538 E2.73391
G1 X102.967 Y39.973 E2.81985
G1 X108.249 Y40.649 E2.99696
G1 X113.538 Y41.023 E3.17332
G1 X118.824 Y41.097 E3.34915
G1 X124.107 Y40.873 E3.52502
G1 X129.383 Y40.349 E3.70136
G1 X134.676 Y39.518 E3.87956
G1 X137.17 Y39.019 E3.96416
G1 X139.751 Y38.424 E4.05225
G1 X144.894 Y37.008 E4.22968
G1 X149.949 Y35.302 E4.40712
G1 X152.335 Y34.383 E4.49216
G1 X154.787 Y33.359 E4.58054
G1 X159.619 Y31.093 E4.75805
G1 X164.272 Y28.581 E4.93392
G1 X168.775 Y25.81 E5.10978
G1 X173.832 Y22.268 E5.31513
G1 X174.44 Y21.891 E5.33892
G1 X175.086 Y21.584 E5.36271
G1 X175.762 Y21.352 E5.38648
G1 X176.46 Y21.196 E5.41027
G1 X177.504 Y21.11 E5.44511
G1 X207.491 Y21.109 E6.44249
G1 X208.205 Y21.149 E6.46627
G1 X208.91 Y21.268 E6.49005
G1 X209.598 Y21.466 E6.51386
G1 X210.259 Y21.738 E6.53764
G1 X210.885 Y22.083 E6.56141
G1 X211.47 Y22.496 E6.58523
G1 X212.004 Y22.971 E6.609
G1 X212.482 Y23.503 E6.63278
G1 X212.898 Y24.085 E6.65658
G1 X213.246 Y24.71 E6.68037
G1 X213.523 Y25.37 E6.70418
G1 X213.724 Y26.056 E6.72795
G1 X213.847 Y26.761 E6.75176
G1 X213.891 Y27.509 E6.77668
G1 X213.89 Y57.497 E7.77408
G1 X213.85 Y58.211 E7.79787
G1 X213.731 Y58.917 E7.82168
G1 X213.533 Y59.604 E7.84546
G1 X213.26 Y60.265 E7.86925
G1 X212.915 Y60.892 E7.89305
G1 X212.679 Y61.243 E7.90712
G1 X210.689 Y63.999 E8.02018
G1 X207.774 Y68.45 E8.19714
G1 X205.124 Y73.044 E8.37354
G1 X202.741 Y77.775 E8.54973
G1 X200.613 Y82.67 E8.72725
G1 X199.665 Y85.13 E8.81494
G1 X198.819 Y87.53 E8.89958
G1 X197.249 Y92.66 E9.07801
G1 X195.983 Y97.827 E9.25495
G1 X195.462 Y100.42 E9.34292
G1 X195.027 Y102.967 E9.42886
G1 X194.351 Y108.249 E9.60597
G1 X193.977 Y113.538 E9.78233
G1 X193.903 Y118.824 E9.95816
G1 X194.127 Y124.107 E10.13403
G1 X194.651 Y129.383 E10.31037
G1 X195.482 Y134.676 E10.48857
G1 X195.981 Y137.17 E10.57317
G1 X196.576 Y139.751 E10.66126
G1 X197.992 Y144.894 E10.83869
G1 X199.698 Y149.949 E11.01613
G1 X200.617 Y152.335 E11.10117
G1 X201.641 Y154.787 E11.18955
G1 X203.907 Y159.619 E11.36706
G1 X206.419 Y164.272 E11.54293
G1 X209.192 Y168.779 E11.71894
G1 X212.729 Y173.827 E11.92395
G1 X213.106 Y174.435 E11.94774
G1 X213.413 Y175.081 E11.97153
G1 X213.646 Y175.757 E11.99531
G1 X213.802 Y176.456 E12.01913
G1 X213.888 Y177.5 E12.05397
G1 X213.89 Y207.491 E13.05148
G1 X213.85 Y208.205 E13.07526
G1 X213.731 Y208.91 E13.09904
G1 X213.533 Y209.597 E13.12282
G1 X213.261 Y210.259 E13.14663
G1 X212.916 Y210.885 E13.1704
G1 X212.503 Y211.47 E13.19422
G1 X212.028 Y212.004 E13.21799
G1 X211.496 Y212.482 E13.24178
G1 X210.914 Y212.898 E13.26557
G1 X210.289 Y213.246 E13.28936
G1 X209.63 Y213.523 E13.31314
G1 X208.943 Y213.724 E13.33695
G1 X208.239 Y213.847 E13.36072
G1 X207.49 Y213.891 E13.38567
G1 X177.504 Y213.89 E14.38301
G1 X176.79 Y213.85 E14.4068
G1 X176.084 Y213.731 E14.43061
G1 X175.397 Y213.533 E14.45439
G1 X174.736 Y213.26 E14.47817
G1 X174.109 Y212.915 E14.50198
G1 X173.759 Y212.68 E14.516
G1 X170.997 Y210.687 E14.62928
G1 X166.55 Y207.774 E14.8061
G1 X161.956 Y205.124 E14.98249
G1 X157.225 Y202.741 E15.15868
G1 X152.33 Y200.613 E15.33621
G1 X149.87 Y199.665 E15.42389
G1 X147.47 Y198.819 E15.50853
G1 X142.34 Y197.249 E15.68697
G1 X137.173 Y195.983 E15.86391
G1 X134.58 Y195.462 E15.95187
G1 X132.033 Y195.027 E16.03781
G1 X126.751 Y194.351 E16.21493
G1 X121.462 Y193.977 E16.39128
G1 X116.176 Y193.903 E16.56711
G1 X110.893 Y194.127 E16.74298
G1 X105.617 Y194.651 E16.91932
G1 X100.324 Y195.482 E17.09753
G1 X97.83 Y195.981 E17.18212
G1 X95.249 Y196.576 E17.27022
G1 X90.106 Y197.992 E17.44764
G1 X85.051 Y199.698 E17.62509
G1 X82.665 Y200.617 E17.71013
G1 X80.213 Y201.641 E17.79851
G1 X75.381 Y203.907 E17.97602
G1 X70.728 Y206.419 E18.15189
G1 X66.225 Y209.19 E18.32774
G1 X61.168 Y212.732 E18.53309
G1 X60.56 Y213.109 E18.55689
G1 X59.914 Y213.416 E18.58068
G1 X59.238 Y213.648 E18.60445
G1 X58.54 Y213.804 E18.62824
G1 X57.496 Y213.89 E18.66308
G1 X27.509 Y213.891 E19.66045
G1 X26.795 Y213.851 E19.68423
G1 X26.09 Y213.732 E19.70801
G1 X25.402 Y213.534 E19.73183
G1 X24.741 Y213.262 E19.7556
G1 X24.115 Y212.917 E19.77937
G1 X23.53 Y212.504 E19.80319
G1 X22.996 Y212.029 E19.82696
G1 X22.518 Y211.497 E19.85075
G1 X22.102 Y210.915 E19.87454
G1 X21.754 Y210.29 E19.89834
G1 X21.477 Y209.63 E19.92214
G1 X21.276 Y208.944 E19.94592
G1 X21.153 Y208.239 E19.96972
G1 X21.109 Y207.491 E19.99464
G1 X21.11 Y177.503 E20.99205
G1 X21.15 Y176.789 E21.01583
G1 X21.269 Y176.083 E21.03964
G1 X21.467 Y175.396 E21.06342
G1 X21.74 Y174.735 E21.08721
G1 X22.269 Y173.829 E21.1221
G1 X25.821 Y168.762 E21.32792
G1 X28.587 Y164.263 E21.50357
G1 X31.098 Y159.614 E21.67931
G1 X33.343 Y154.824 E21.85526
G1 X35.354 Y149.817 E22.03472
G1 X36.181 Y147.47 E22.11749
G1 X37.751 Y142.34 E22.29592
G1 X39.017 Y137.173 E22.47286
G1 X39.538 Y134.58 E22.56083
G1 X39.973 Y132.033 E22.64677
G1 X40.649 Y126.751 E22.82388
G1 X41.023 Y121.462 E23.00024
G1 X41.097 Y116.176 E23.17607
G1 X40.873 Y110.893 E23.35194
G1 X40.349 Y105.617 E23.52828
G1 X39.518 Y100.321 E23.70658
G1 X39.019 Y97.83 E23.79108
G1 X38.424 Y95.249 E23.87917
G1 X37.008 Y90.106 E24.0566
G1 X35.302 Y85.051 E24.23404
G1 X34.383 Y82.665 E24.31908
G1 X33.359 Y80.213 E24.40746
G1 X31.093 Y75.381 E24.58497
G1 X28.581 Y70.728 E24.76084
G1 X25.81 Y66.225 E24.9367
G1 X22.268 Y61.168 E25.14205
G1 X21.891 Y60.56 E25.16584
G1 X21.584 Y59.914 E25.18963
G1 X21.352 Y59.238 E25.2134
G1 X21.196 Y58.54 E25.23719
G1 X21.11 Y57.496 E25.27203
G1 X21.109 Y27.509 E26.26941
G1 X21.149 Y26.795 E26.29319
G1 X21.268 Y26.09 E26.31697
G1 X21.466 Y25.402 E26.34078
G1 X21.738 Y24.741 E26.36456
G1 X22.083 Y24.115 E26.38833
G1 X22.496 Y23.53 E26.41215
G1 X22.971 Y22.996 E26.43592
M204 S5000
M205 X30 Y30
G0 F3600 X23.365 Y23.17
M204 S500
M205 X20 Y20
G1 F1800 X23.893 Y22.721 E26.45897
G1 X24.468 Y22.337 E26.48197
G1 X25.085 Y22.021 E26.50502
G1 X25.733 Y21.778 E26.52804
G1 X26.405 Y21.611 E26.55107
G1 X27.092 Y21.523 E26.57411
G1 X27.509 Y21.509 E26.58799
G1 X57.498 Y21.511 E27.58542
G1 X58.19 Y21.551 E27.60848
G1 X58.872 Y21.67 E27.63151
G1 X59.536 Y21.868 E27.65455
G1 X60.172 Y22.14 E27.67756
G1 X61.01 Y22.646 E27.71012
G1 X63.783 Y24.647 E27.82385
G1 X68.244 Y27.569 E28.00122
G1 X72.857 Y30.23 E28.17835
G1 X77.585 Y32.612 E28.35443
G1 X82.527 Y34.76 E28.53366
G1 X84.979 Y35.706 E28.62107
G1 X87.435 Y36.571 E28.70768
G1 X92.532 Y38.13 E28.88496
G1 X97.773 Y39.415 E29.06443
G1 X100.339 Y39.93 E29.15148
G1 X102.896 Y40.367 E29.23776
G1 X108.207 Y41.047 E29.41585
G1 X113.522 Y41.422 E29.59307
G1 X118.818 Y41.497 E29.76923
G1 X124.145 Y41.271 E29.94656
G1 X129.45 Y40.744 E30.12388
G1 X134.719 Y39.917 E30.30127
G1 X137.266 Y39.407 E30.38767
G1 X139.839 Y38.814 E30.47549
G1 X145.018 Y37.388 E30.65415
G1 X150.073 Y35.683 E30.83159
G1 X152.54 Y34.732 E30.91953
G1 X154.923 Y33.737 E31.00542
G1 X159.8 Y31.45 E31.18458
G1 X164.48 Y28.924 E31.36146
G1 X168.989 Y26.149 E31.53756
G1 X174.061 Y22.596 E31.74352
G1 X174.651 Y22.232 E31.76658
G1 X175.278 Y21.938 E31.78961
G1 X175.935 Y21.719 E31.81265
G1 X176.612 Y21.577 E31.83566
G1 X177.504 Y21.51 E31.86541
G1 X207.491 Y21.509 E32.86278
G1 X208.182 Y21.549 E32.8858
G1 X208.864 Y21.668 E32.90883
G1 X209.528 Y21.865 E32.93186
G1 X210.165 Y22.138 E32.95491
G1 X210.766 Y22.482 E32.97795
G1 X211.324 Y22.893 E33.001
G1 X211.83 Y23.365 E33.02401
G1 X212.279 Y23.893 E33.04706
G1 X212.663 Y24.468 E33.07006
G1 X212.979 Y25.085 E33.09312
G1 X213.222 Y25.733 E33.11613
G1 X213.389 Y26.405 E33.13917
G1 X213.477 Y27.092 E33.1622
G1 X213.491 Y27.509 E33.17608
G1 X213.49 Y57.497 E34.17348
G1 X213.45 Y58.189 E34.19654
G1 X213.331 Y58.871 E34.21956
G1 X213.133 Y59.535 E34.24261
G1 X212.861 Y60.171 E34.26562
G1 X212.355 Y61.009 E34.29818
G1 X210.353 Y63.783 E34.41196
G1 X207.431 Y68.244 E34.58933
G1 X204.77 Y72.857 E34.76645
G1 X202.388 Y77.585 E34.94254
G1 X200.24 Y82.527 E35.12176
G1 X199.294 Y84.979 E35.20918
G1 X198.429 Y87.435 E35.29578
G1 X196.87 Y92.532 E35.47306
G1 X195.585 Y97.773 E35.65254
G1 X195.07 Y100.339 E35.73959
G1 X194.633 Y102.896 E35.82587
G1 X193.953 Y108.207 E36.00395
G1 X193.578 Y113.522 E36.18117
G1 X193.503 Y118.818 E36.35733
G1 X193.729 Y124.145 E36.53467
G1 X194.256 Y129.45 E36.71198
G1 X195.083 Y134.719 E36.88938
G1 X195.593 Y137.266 E36.97577
G1 X196.186 Y139.839 E37.06359
G1 X197.612 Y145.018 E37.24226
G1 X199.317 Y150.073 E37.41969
G1 X200.268 Y152.54 E37.50763
G1 X201.263 Y154.923 E37.59352
G1 X203.55 Y159.8 E37.77268
G1 X206.076 Y164.48 E37.94957
G1 X208.851 Y168.989 E38.12566
G1 X212.402 Y174.057 E38.33148
G1 X212.766 Y174.646 E38.35451
G1 X213.059 Y175.273 E38.37753
G1 X213.279 Y175.93 E38.40058
G1 X213.421 Y176.608 E38.42362
G1 X213.488 Y177.5 E38.45337
G1 X213.49 Y207.491 E39.45087
G1 X213.45 Y208.182 E39.47389
G1 X213.331 Y208.864 E39.49692
G1 X213.134 Y209.528 E39.51996
G1 X212.861 Y210.165 E39.54301
G1 X212.517 Y210.766 E39.56604
G1 X212.107 Y211.323 E39.58904
G1 X211.634 Y211.83 E39.6121
G1 X211.107 Y212.278 E39.63511
G1 X210.531 Y212.663 E39.65815
G1 X209.915 Y212.979 E39.68118
G1 X209.266 Y213.222 E39.70423
G1 X208.594 Y213.389 E39.72726
G1 X207.907 Y213.476 E39.75029
G1 X207.49 Y213.491 E39.76417
G1 X177.504 Y213.49 E40.76151
G1 X176.812 Y213.45 E40.78456
G1 X176.13 Y213.331 E40.80759
G1 X175.466 Y213.133 E40.83063
G1 X174.83 Y212.861 E40.85364
G1 X173.993 Y212.355 E40.88617
G1 X171.228 Y210.36 E40.99957
G1 X166.756 Y207.431 E41.17738
G1 X162.143 Y204.77 E41.3545
G1 X157.415 Y202.388 E41.53059
G1 X152.473 Y200.24 E41.70981
G1 X150.021 Y199.294 E41.79723
G1 X147.565 Y198.429 E41.88383
G1 X142.468 Y196.87 E42.06111
G1 X137.227 Y195.585 E42.24059
G1 X134.661 Y195.07 E42.32764
G1 X132.104 Y194.633 E42.41392
G1 X126.793 Y193.953 E42.592
G1 X121.478 Y193.578 E42.76922
G1 X116.182 Y193.503 E42.94538
G1 X110.855 Y193.729 E43.12272
G1 X105.55 Y194.256 E43.30003
G1 X100.281 Y195.083 E43.47743
G1 X97.734 Y195.593 E43.56382
G1 X95.161 Y196.186 E43.65164
G1 X89.982 Y197.612 E43.83031
G1 X84.927 Y199.317 E44.00774
G1 X82.46 Y200.268 E44.09568
G1 X80.077 Y201.263 E44.18157
G1 X75.2 Y203.55 E44.36073
G1 X70.52 Y206.076 E44.53762
G1 X66.011 Y208.851 E44.71371
G1 X60.939 Y212.404 E44.91968
G1 X60.349 Y212.768 E44.94274
G1 X59.722 Y213.062 E44.96577
G1 X59.065 Y213.281 E44.9888
G1 X58.388 Y213.423 E45.01181
G1 X57.496 Y213.49 E45.04156
G1 X27.509 Y213.491 E46.03894
G1 X26.818 Y213.451 E46.06196
G1 X26.136 Y213.332 E46.08498
G1 X25.472 Y213.135 E46.10802
G1 X24.835 Y212.862 E46.13107
G1 X24.234 Y212.518 E46.1541
G1 X23.676 Y212.107 E46.17715
G1 X23.17 Y211.635 E46.20017
G1 X22.721 Y211.107 E46.22322
G1 X22.337 Y210.532 E46.24622
G1 X22.021 Y209.915 E46.26927
G1 X21.778 Y209.267 E46.29229
G1 X21.611 Y208.595 E46.31532
G1 X21.523 Y207.908 E46.33836
G1 X21.509 Y207.491 E46.35224
G1 X21.51 Y177.503 E47.34964
G1 X21.55 Y176.811 E47.37269
G1 X21.669 Y176.129 E47.39572
G1 X21.867 Y175.465 E47.41877
G1 X22.139 Y174.829 E47.44177
G1 X22.597 Y174.059 E47.47157
G1 X26.155 Y168.984 E47.67772
G1 X28.93 Y164.47 E47.85395
G1 X31.451 Y159.801 E48.03044
G1 X33.712 Y154.978 E48.2076
G1 X35.725 Y149.966 E48.38725
G1 X36.571 Y147.565 E48.47192
G1 X38.13 Y142.468 E48.64919
G1 X39.415 Y137.227 E48.82867
G1 X39.93 Y134.661 E48.91572
G1 X40.367 Y132.104 E49.002
G1 X41.047 Y126.793 E49.18009
G1 X41.422 Y121.478 E49.3573
G1 X41.497 Y116.182 E49.53347
G1 X41.271 Y110.855 E49.7108
G1 X40.744 Y105.55 E49.88812
G1 X39.917 Y100.281 E50.06551
G1 X39.407 Y97.734 E50.15191
G1 X38.814 Y95.161 E50.23973
G1 X37.388 Y89.982 E50.41839
G1 X35.683 Y84.927 E50.59583
G1 X34.732 Y82.46 E50.68377
G1 X33.737 Y80.077 E50.76966
G1 X31.45 Y75.2 E50.94882
G1 X28.924 Y70.52 E51.1257
G1 X26.149 Y66.011 E51.3018
G1 X22.596 Y60.939 E51.50776
G1 X22.232 Y60.349 E51.53082
G1 X21.938 Y59.722 E51.55385
G1 X21.719 Y59.065 E51.57689
G1 X21.577 Y58.388 E51.5999
G1 X21.51 Y57.496 E51.62965
G1 X21.509 Y27.509 E52.62702
G1 X21.549 Y26.818 E52.65004
G1 X21.668 Y26.136 E52.67307
G1 X21.865 Y25.472 E52.6961
G1 X22.138 Y24.835 E52.71915
G1 X22.482 Y24.234 E52.74218
G1 X22.893 Y23.676 E52.76524
G1 X23.365 Y23.17 E52.78825
M204 S5000
M205 X30 Y30
G0 F3600 X23.758 Y23.351
M204 S500
M205 X20 Y20
G1 F1800 X24.28 Y22.933 E52.81049
G1 X24.849 Y22.581 E52.83275
G1 X25.456 Y22.299 E52.85501
G1 X26.092 Y22.091 E52.87726
G1 X26.748 Y21.961 E52.89951
G1 X27.509 Y21.909 E52.92488
G1 X57.498 Y21.911 E53.92231
G1 X58.166 Y21.951 E53.94457
G1 X58.824 Y22.07 E53.96681
G1 X59.464 Y22.267 E53.98908
G1 X60.075 Y22.539 E54.01133
G1 X60.775 Y22.97 E54.03867
G1 X63.54 Y24.966 E54.15209
G1 X68.039 Y27.912 E54.33096
G1 X72.67 Y30.583 E54.50877
G1 X77.417 Y32.975 E54.68557
G1 X82.372 Y35.129 E54.86527
G1 X84.838 Y36.08 E54.95317
G1 X87.304 Y36.949 E55.04014
G1 X92.441 Y38.52 E55.21881
G1 X97.668 Y39.801 E55.3978
G1 X100.271 Y40.324 E55.48611
G1 X102.824 Y40.76 E55.57225
G1 X108.18 Y41.446 E55.75185
G1 X113.506 Y41.822 E55.92943
G1 X118.829 Y41.898 E56.10649
G1 X124.167 Y41.671 E56.2842
G1 X129.498 Y41.142 E56.46238
G1 X134.791 Y40.311 E56.64058
G1 X137.363 Y39.795 E56.72783
G1 X139.938 Y39.202 E56.81572
G1 X145.131 Y37.772 E56.99486
G1 X150.225 Y36.053 E57.17368
G1 X152.659 Y35.116 E57.26043
G1 X155.106 Y34.093 E57.34864
G1 X159.967 Y31.814 E57.5272
G1 X164.679 Y29.271 E57.70529
G1 X169.218 Y26.478 E57.88255
G1 X174.291 Y22.924 E58.08857
G1 X174.861 Y22.573 E58.11083
G1 X175.468 Y22.293 E58.13306
G1 X176.105 Y22.088 E58.15532
G1 X176.762 Y21.959 E58.17759
G1 X177.504 Y21.91 E58.20232
G1 X207.491 Y21.909 E59.19969
G1 X208.159 Y21.949 E59.22195
G1 X208.817 Y22.068 E59.24419
G1 X209.456 Y22.265 E59.26643
G1 X210.068 Y22.537 E59.28871
G1 X210.642 Y22.88 E59.31095
G1 X211.172 Y23.289 E59.33321
G1 X211.649 Y23.758 E59.35546
G1 X212.067 Y24.28 E59.37771
G1 X212.419 Y24.849 E59.39996
G1 X212.701 Y25.456 E59.42222
G1 X212.909 Y26.092 E59.44448
G1 X213.039 Y26.748 E59.46672
G1 X213.091 Y27.509 E59.49209
G1 X213.09 Y57.497 E60.48949
G1 X213.05 Y58.165 E60.51175
G1 X212.931 Y58.823 E60.53399
G1 X212.734 Y59.463 E60.55626
G1 X212.462 Y60.074 E60.57851
G1 X212.031 Y60.775 E60.60588
G1 X210.027 Y63.551 E60.71975
G1 X207.088 Y68.039 E60.89818
G1 X204.417 Y72.67 E61.07599
G1 X202.025 Y77.417 E61.25279
G1 X199.871 Y82.372 E61.43249
G1 X198.92 Y84.838 E61.5204
G1 X198.051 Y87.304 E61.60737
G1 X196.48 Y92.441 E61.78603
G1 X195.199 Y97.668 E61.96503
G1 X194.676 Y100.271 E62.05334
G1 X194.24 Y102.824 E62.13948
G1 X193.554 Y108.18 E62.31907
G1 X193.178 Y113.506 E62.49666
G1 X193.102 Y118.829 E62.67372
G1 X193.329 Y124.167 E62.85142
G1 X193.858 Y129.498 E63.0296
G1 X194.689 Y134.791 E63.20781
G1 X195.205 Y137.363 E63.29506
G1 X195.798 Y139.938 E63.38294
G1 X197.228 Y145.131 E63.56209
